public/icons8-mysql.svg

<svg xmlns="http://www.w3.org/2000/svg"  viewBox="0 0 50 50" width="100px" height="100px"><path d="M 31.167969 8 C 30.699219 7.988281 30.289063 8.167969 30.078125 8.6875 C 29.71875 9.558594 30.613281 10.410156 30.933594 10.855469 C 31.15625 11.164063 31.445313 11.511719 31.605469 11.859375 C 31.710938 12.089844 31.726563 12.320313 31.816406 12.5625 C 32.039063 13.160156 32.394531 13.839844 32.679688 14.394531 C 32.824219 14.675781 32.984375 14.96875 33.167969 15.21875 C 33.28125 15.371094 33.472656 15.441406 33.503906 15.675781 C 33.316406 15.941406 33.304688 16.351563 33.199219 16.6875 C 32.722656 18.191406 32.902344 20.0625 33.59375 21.171875 C 33.808594 21.515625 34.3125 22.246094 35 21.96875 C 35.601563 21.722656 35.46875 20.960938 35.640625 20.285156 C 35.679688 20.136719 35.65625 20.023438 35.734375 19.921875 L 35.734375 19.953125 C 35.914063 20.320313 36.097656 20.6875 36.28125 21.050781 C 36.691406 21.707031 37.414063 22.390625 38.023438 22.855469 C 38.339844 23.09375 38.589844 23.507813 39 23.648438 L 39 23.617188 L 38.96875 23.617188 C 38.890625 23.492188 38.765625 23.441406 38.664063 23.34375 C 38.425781 23.109375 38.160156 22.816406 37.964844 22.546875 C 37.40625 21.792969 36.914063 20.964844 36.46875 20.105469 C 36.253906 19.695313 36.066406 19.242188 35.886719 18.824219 C 35.816406 18.660156 35.816406 18.417969 35.671875 18.332031 C 35.472656 18.640625 35.183594 18.886719 35.03125 19.25 C 34.789063 19.828125 34.753906 20.535156 34.664063 21.265625 C 34.609375 21.285156 34.632813 21.269531 34.605469 21.296875 C 34.179688 21.191406 34.027344 20.753906 33.871094 20.378906 C 33.472656 19.429688 33.394531 17.898438 33.75 16.808594 C 33.839844 16.523438 34.25 15.632813 34.085938 15.371094 C 34.007813 15.109375 33.742188 14.960938 33.597656 14.761719 C 33.414063 14.515625 33.234375 14.191406 33.109375 13.90625 C 32.78125 13.164063 32.472656 12.304688 32.125 11.554688 C 31.960938 11.195313 31.683594 10.835938 31.453125 10.515625 C 31.199219 10.164063 30.917969 9.90625 30.71875 9.476563 C 30.652344 9.328125 30.554688 9.085938 30.660156 8.929688 C 30.691406 8.824219 30.738281 8.78125 30.84375 8.746094 C 31.019531 8.609375 31.511719 8.789063 31.699219 8.867188 C 32.1875 9.070313 32.597656 9.265625 33.011719 9.539063 C 33.210938 9.671875 33.410156 9.925781 33.652344 10 L 33.925781 10 C 34.359375 10.097656 34.839844 10.027344 35.238281 10.152344 C 35.949219 10.367188 36.585938 10.703125 37.160156 11.066406 C 38.921875 12.175781 40.363281 13.757813 41.34375 15.644531 C 41.503906 15.949219 41.574219 16.242188 41.714844 16.5625 C 41.992188 17.210938 42.347656 17.882813 42.628906 18.515625 C 42.90625 19.152344 43.179688 19.789063 43.574219 20.316406 C 43.78125 20.59375 44.585938 20.746094 44.949219 20.898438 C 45.203125 21.007813 45.625 21.121094 45.863281 21.265625 C 46.328125 21.542969 46.773438 21.875 47.207031 22.183594 C 47.425781 22.335938 48.089844 22.667969 48.125 22.945313 C 47.050781 22.917969 46.230469 23.015625 45.53125 23.3125 C 45.332031 23.398438 45.011719 23.398438 44.980469 23.648438 C 45.085938 23.761719 45.105469 23.933594 45.191406 24.074219 C 45.359375 24.34375 45.640625 24.707031 45.894531 24.898438 C 46.171875 25.105469 46.453125 25.328125 46.75 25.511719 C 47.273438 25.828125 47.859375 26.011719 48.367188 26.332031 C 48.664063 26.523438 48.964844 26.761719 49.253906 26.972656 C 49.398438 27.082031 49.492188 27.246094 49.679688 27.3125 L 49.679688 27.28125 C 49.582031 27.15625 49.558594 26.984375 49.46875 26.855469 L 49.066406 26.453125 C 48.679688 25.941406 48.1875 25.488281 47.664063 25.113281 C 47.246094 24.8125 46.3125 24.40625 46.140625 23.921875 L 46.109375 23.890625 C 46.402344 23.859375 46.75 23.75 47.023438 23.675781 C 47.484375 23.554688 47.890625 23.585938 48.363281 23.464844 C 48.578125 23.402344 48.792969 23.339844 49.007813 23.28125 L 49.007813 23.15625 C 48.769531 22.914063 48.597656 22.585938 48.335938 22.363281 C 47.652344 21.78125 46.90625 21.199219 46.136719 20.714844 C 45.710938 20.445313 45.183594 20.269531 44.734375 20.042969 C 44.582031 19.964844 44.316406 19.925781 44.214844 19.796875 C 43.976563 19.496094 43.847656 19.113281 43.664063 18.761719 C 43.28125 18.023438 42.90625 17.21875 42.566406 16.441406 C 42.335938 15.914063 42.183594 15.390625 41.894531 14.914063 C 40.507813 12.636719 39.015625 11.257813 36.703125 9.90625 C 36.210938 9.617188 35.621094 9.507813 34.996094 9.359375 C 34.65625 9.335938 34.324219 9.316406 33.984375 9.296875 C 33.78125 9.210938 33.566406 8.960938 33.375 8.835938 C 32.894531 8.535156 31.949219 8.011719 31.167969 8 Z M 34.476563 11.3125 C 34.253906 11.308594 34.09375 11.339844 33.925781 11.375 L 33.925781 11.40625 L 33.957031 11.40625 C 34.0625 11.625 34.253906 11.765625 34.386719 11.953125 C 34.488281 12.167969 34.585938 12.382813 34.6875 12.597656 L 34.71875 12.566406 C 34.90625 12.433594 34.996094 12.21875 34.996094 11.894531 C 34.917969 11.816406 34.90625 11.714844 34.84375 11.621094 C 34.753906 11.492188 34.585938 11.421875 34.476563 11.3125 Z M 1.867188 23.996094 C 1.566406 24.007813 1.238281 24.066406 0.882813 24.179688 C 0.289063 24.359375 -0.00390625 24.714844 -0.00390625 25.4375 L -0.00390625 33 L 2 33 L 2 25.621094 L 4.777344 31.929688 C 5.121094 32.714844 5.589844 32.996094 6.507813 32.996094 C 7.429688 32.996094 7.878906 32.714844 8.222656 31.929688 L 11 25.78125 L 11 33 L 13 33 L 13 25.4375 C 13 24.714844 12.710938 24.359375 12.113281 24.179688 C 10.691406 23.730469 9.734375 24.117188 9.304688 25.089844 L 6.453125 31.503906 L 3.695313 25.089844 C 3.382813 24.359375 2.757813 23.960938 1.867188 23.996094 Z M 26.246094 24 C 25.457031 24 23 24.09375 23 26 L 23 27.234375 C 23 28.109375 23.769531 28.824219 25.4375 29 C 25.625 29.011719 25.8125 29.027344 26 29.027344 C 26 29.027344 27.945313 28.988281 28 29 C 29.125 29 29 29.875 29 30 L 29 31 C 29 31.136719 28.96875 32 27.988281 32 L 23 32 L 23 33 L 28.007813 33 C 28.664063 33 29.300781 32.863281 29.808594 32.625 C 30.652344 32.238281 31 31.714844 31 31.027344 L 31 29.597656 C 31 28.0625 29.09375 28 28 28 L 26 28 C 25.214844 28 25.09375 27.523438 25 27 L 25 26 C 25.09375 25.601563 25.269531 25.0625 25.964844 25 L 31 25 L 31 24 Z M 33.980469 24 C 32.503906 24.203125 31.984375 24.9375 31.984375 26 L 31.984375 31 C 31.984375 31.972656 32.527344 32.558594 33.644531 32.863281 C 34.019531 32.96875 34.359375 33.011719 34.679688 33.011719 L 36.90625 33 L 38.214844 33 L 39.328125 34 L 41.578125 34 L 40.03125 32.605469 C 40.757813 32.304688 40.984375 31.84375 40.984375 30.980469 L 40.984375 26 C 40.984375 24.9375 40.292969 24.203125 38.816406 24 Z M 42 24 L 42 30.957031 C 42 32.164063 42.683594 32.84375 44.492188 32.980469 C 44.660156 32.988281 44.832031 33 45 33 L 50 33 L 50 32 L 45.378906 32 C 44.347656 32 44 31.566406 44 30.949219 L 44 24 Z M 35.171875 25 L 37.746094 25 C 38.425781 25 38.882813 25.546875 38.984375 26 C 38.984375 26 39 30.65625 39 31 C 39 31.34375 38.808594 31.5 38.808594 31.5 L 38.265625 31 L 36 31 L 37.113281 32 L 35.171875 32 C 34.476563 32 34.085938 31.484375 33.984375 31 L 33.984375 26.101563 C 33.984375 25.570313 34.390625 25 35.171875 25 Z M 14 27 C 14.039063 27.039063 14 31.261719 14 31.34375 C 14.015625 32.21875 15.125 32.984375 16.863281 33 L 20 33 L 20 33.066406 C 20 33.253906 20.136719 33.878906 19 34 C 18.988281 34 14.011719 34 14 34 L 14 35 L 19.214844 35 C 20.097656 34.972656 22.011719 34.773438 22 33.242188 C 22 33.214844 22.007813 27 22 27 L 20 27 L 20 32 C 19.96875 32 17.523438 32.007813 17.03125 32 C 16.066406 31.984375 15.984375 31.433594 16 31.222656 L 16 27 Z"/></svg>

<svg xmlns="http://www.w3.org/2000/svg" viewBox="0 0 50 50" width="100" height="100"><path d="M31.168 8c-.469-.012-.879.168-1.09.688-.36.87.535 1.722.856 2.167.222.31.511.657.671 1.004.106.23.122.461.211.704.223.597.579 1.277.864 1.832.144.28.304.574.488.824.113.152.305.222.336.457-.188.265-.2.676-.305 1.011-.476 1.504-.297 3.375.395 4.485.215.344.718 1.074 1.406.797.602-.246.469-1.008.64-1.684.04-.148.016-.262.094-.363v.031c.18.367.364.735.547 1.098.41.656 1.133 1.34 1.742 1.804.317.239.567.653.977.793v-.03h-.031c-.078-.126-.203-.177-.305-.274a6.762 6.762 0 0 1-.7-.797 18.043 18.043 0 0 1-1.495-2.442c-.215-.41-.403-.863-.582-1.28-.07-.165-.07-.407-.215-.493-.2.309-.488.555-.64.918-.243.578-.278 1.285-.368 2.016-.055.02-.031.004-.059.03-.425-.105-.578-.542-.734-.917-.398-.95-.476-2.48-.121-3.57.09-.286.5-1.176.336-1.438-.078-.262-.344-.41-.488-.61a4.617 4.617 0 0 1-.489-.855c-.328-.742-.636-1.601-.984-2.351-.164-.36-.441-.72-.672-1.04-.254-.35-.535-.609-.734-1.038-.067-.149-.164-.391-.059-.547.031-.106.078-.149.184-.184.176-.137.668.043.855.121.488.203.899.399 1.313.672.199.133.398.387.64.461h.274c.433.098.914.027 1.312.152.711.215 1.348.551 1.922.914a11.85 11.85 0 0 1 4.184 4.579c.16.304.23.597.37.918.278.648.634 1.32.915 1.953.277.636.55 1.273.945 1.8.207.278 1.012.43 1.375.582.254.11.676.223.914.368.465.277.91.609 1.344.918.219.152.883.484.918.761-1.074-.027-1.895.07-2.594.367-.199.086-.52.086-.55.336.105.114.124.286.21.426.168.27.45.633.704.824.277.207.558.43.855.614.523.316 1.11.5 1.617.82.297.191.598.43.887.64.144.11.238.274.426.34v-.03c-.098-.126-.121-.298-.211-.427l-.403-.402a6.523 6.523 0 0 0-1.402-1.34c-.418-.3-1.352-.707-1.523-1.191l-.032-.031c.293-.032.641-.141.914-.215.461-.121.868-.09 1.34-.211.215-.063.43-.125.645-.184v-.125c-.238-.242-.41-.57-.672-.793-.684-.582-1.43-1.164-2.2-1.648-.425-.27-.952-.445-1.402-.672-.152-.078-.418-.117-.52-.246-.237-.3-.366-.684-.55-1.035a39.548 39.548 0 0 1-1.098-2.32c-.23-.528-.382-1.051-.671-1.528-1.387-2.277-2.88-3.656-5.192-5.008-.492-.289-1.082-.398-1.707-.547-.34-.023-.672-.043-1.012-.062-.203-.086-.418-.336-.609-.461-.48-.3-1.426-.824-2.207-.836Zm3.309 3.313a2.275 2.275 0 0 0-.551.062v.031h.031c.105.219.297.36.43.547l.3.645.032-.032c.187-.132.277-.347.277-.671-.078-.079-.09-.18-.152-.274-.09-.129-.258-.2-.367-.309ZM1.867 23.995c-.3.012-.629.07-.984.184-.594.18-.887.535-.887 1.258V33H2v-7.379l2.777 6.309c.344.785.813 1.066 1.73 1.066.923 0 1.372-.281 1.716-1.066L11 25.78V33h2v-7.563c0-.722-.29-1.078-.887-1.257-1.422-.45-2.379-.063-2.808.91l-2.852 6.414-2.758-6.414c-.312-.73-.937-1.13-1.828-1.094Zm24.38.004c-.79 0-3.247.094-3.247 2v1.234c0 .875.77 1.59 2.438 1.766.187.012.375.027.562.027 0 0 1.945-.039 2-.027 1.125 0 1 .875 1 1v1c0 .137-.031 1-1.012 1H23v1h5.008c.656 0 1.293-.137 1.8-.375.844-.387 1.192-.91 1.192-1.598v-1.43C31 28.063 29.094 28 28 28h-2c-.785 0-.906-.477-1-1v-1c.094-.398.27-.938.965-1H31v-1Zm7.733 0c-1.476.203-1.996.938-1.996 2v5c0 .973.543 1.559 1.66 1.863a3.77 3.77 0 0 0 1.036.149L36.906 33h1.309l1.113 1h2.25l-1.547-1.395c.727-.3.953-.761.953-1.625V26c0-1.063-.691-1.797-2.168-2ZM42 24v6.957c0 1.207.684 1.887 2.492 2.023.168.008.34.02.508.02h5v-1h-4.621C44.348 32 44 31.566 44 30.95V24Zm-6.828 1h2.574c.68 0 1.137.547 1.238 1 0 0 .016 4.656.016 5 0 .344-.191.5-.191.5l-.543-.5H36l1.113 1h-1.941c-.695 0-1.086-.516-1.188-1v-4.898c0-.532.407-1.102 1.188-1.102ZM14 27c.04.04 0 4.262 0 4.344.016.875 1.125 1.64 2.863 1.656H20v.066c0 .188.137.813-1 .934h-5v1h5.215c.883-.027 2.797-.227 2.785-1.758 0-.027.008-6.242 0-6.242h-2v5c-.031 0-2.477.008-2.969 0-.965-.016-1.047-.566-1.031-.777V27Z"/></svg>
